include/LD/assets/icons/action/new_custom49.svg

<?xml version="1.0"?><svg xmlns="http://www.w3.org/2000/svg" width="52" height="52" viewBox="0 0 52 52"><g fill="#fff"><path d="m26 18.8c-4 0-7.2 3.2-7.2 7.2s3.2 7.2 7.2 7.2 7.2-3.2 7.2-7.2-3.2-7.2-7.2-7.2z m0 11.2c-2.2 0-4-1.8-4-4s1.8-4 4-4 4 1.8 4 4-1.8 4-4 4z m0-28c-13.3 0-24 10.7-24 24s10.7 24 24 24 24-10.7 24-24-10.7-24-24-24z m0 42.3c0 1-0.8 1.7-1.8 1.6-9.6-0.8-17.3-8.5-18.2-18.2 0-0.9 0.7-1.7 1.7-1.7h1.6c0.8 0 1.5 0.6 1.6 1.4 0.7 7.2 6.5 13 13.7 13.7 0.8 0.1 1.4 0.8 1.4 1.6v1.6z m0-6.3c-6.6 0-12-5.4-12-12s5.4-12 12-12 12 5.4 12 12-5.4 12-12 12z m18.3-12h-1.6c-0.8 0-1.5-0.6-1.6-1.4-0.7-7.2-6.5-13-13.7-13.7-0.8-0.1-1.4-0.8-1.4-1.6v-1.6c0-1 0.8-1.7 1.8-1.6 9.7 0.8 17.4 8.6 18.2 18.2 0 0.9-0.7 1.7-1.7 1.7z"></path></g></svg>

<svg xmlns="http://www.w3.org/2000/svg" x="0px" y="0px"
	 width="52px" height="52px" viewBox="0 0 52 52" enable-background="new 0 0 52 52" xml:space="preserve">
<g>
	<path fill="#FFFFFF" d="M26,18.8c-4,0-7.2,3.2-7.2,7.2s3.2,7.2,7.2,7.2s7.2-3.2,7.2-7.2S30,18.8,26,18.8z M26,30c-2.2,0-4-1.8-4-4
		s1.8-4,4-4s4,1.8,4,4S28.2,30,26,30z"/>
	<path fill="#FFFFFF" d="M26,2C12.7,2,2,12.7,2,26s10.7,24,24,24s24-10.7,24-24S39.3,2,26,2z M26,44.3c0,1-0.8,1.7-1.8,1.6
		C14.6,45.1,6.9,37.4,6,27.7C6,26.8,6.7,26,7.7,26h1.6c0.8,0,1.5,0.6,1.6,1.4c0.7,7.2,6.5,13,13.7,13.7c0.8,0.1,1.4,0.8,1.4,1.6
		V44.3z M26,38c-6.6,0-12-5.4-12-12s5.4-12,12-12s12,5.4,12,12S32.6,38,26,38z M44.3,26h-1.6c-0.8,0-1.5-0.6-1.6-1.4
		c-0.7-7.2-6.5-13-13.7-13.7c-0.8-0.1-1.4-0.8-1.4-1.6V7.7c0-1,0.8-1.7,1.8-1.6c9.7,0.8,17.4,8.6,18.2,18.2C46,25.2,45.3,26,44.3,26
		z"/>
</g>
</svg>
